X: 2
T: The Hut On Staffin Island
R: hornpipe
M: 4/4
L: 1/8
K: Dmaj
|: A,B,DE D3E    | FDFA d2    cd      | B3d BAFD       |  E2   FE     DB,B,D  |
   A,B,DE D3E    | (3FED   FA  dDcD    | B3d BAFD       |1 E2   FE     D3B,   :|2 E2 FE D2 FA ||
|: d4     d2  ed | cBcd c2    BA      | B2  BA   BcdB  |  AFEF DB, B,2        |
   d4     d2  ed | cBcd c2    BA      | B2  BA   BcdB  |  AFEF D4             |
   d4     d2  ed | cBcd c2    BA      | B2  BA   B2 dB |  AFEF DB,B,D         |
   A,B,DE D3E    | (3FED   FA d2   cd | B3d BAFD       |  E2   FE     D4     ||